icons/circle/48/drumkv1.svg

<svg viewBox="0 0 48 48" xmlns="http://www.w3.org/2000/svg">
 <defs>
  <linearGradient id="linearGradient4249" x2="0" y1="47" y2="1" gradientUnits="userSpaceOnUse">
   <stop style="stop-color:#b95f94" offset="0"/>
   <stop style="stop-color:#bf6d9d" offset="1"/>
  </linearGradient>
 </defs>
 <path d="m36.31 5c5.859 4.062 9.688 10.831 9.688 18.5 0 12.426-10.07 22.5-22.5 22.5-7.669 0-14.438-3.828-18.5-9.688 1.037 1.822 2.306 3.499 3.781 4.969 4.085 3.712 9.514 5.969 15.469 5.969 12.703 0 23-10.298 23-23 0-5.954-2.256-11.384-5.969-15.469-1.469-1.475-3.147-2.744-4.969-3.781zm4.969 3.781c3.854 4.113 6.219 9.637 6.219 15.719 0 12.703-10.297 23-23 23-6.081 0-11.606-2.364-15.719-6.219 4.16 4.144 9.883 6.719 16.219 6.719 12.703 0 23-10.298 23-23 0-6.335-2.575-12.06-6.719-16.219z" style="opacity:.05"/>
 <path d="m41.28 8.781c3.712 4.085 5.969 9.514 5.969 15.469 0 12.703-10.297 23-23 23-5.954 0-11.384-2.256-15.469-5.969 4.113 3.854 9.637 6.219 15.719 6.219 12.703 0 23-10.298 23-23 0-6.081-2.364-11.606-6.219-15.719z" style="opacity:.1"/>
 <path d="m31.25 2.375c8.615 3.154 14.75 11.417 14.75 21.13 0 12.426-10.07 22.5-22.5 22.5-9.708 0-17.971-6.135-21.12-14.75a23 23 0 0 0 44.875-7 23 23 0 0 0-16-21.875z" style="opacity:.2"/>
 <path d="m24 1c12.703 0 23 10.297 23 23s-10.297 23-23 23-23-10.297-23-23 10.297-23 23-23z" style="fill:url(#linearGradient4249)"/>
 <path d="m40.03 7.531c3.712 4.084 5.969 9.514 5.969 15.469 0 12.703-10.297 23-23 23-5.954 0-11.384-2.256-15.469-5.969 4.178 4.291 10.01 6.969 16.469 6.969 12.703 0 23-10.298 23-23 0-6.462-2.677-12.291-6.969-16.469z" style="opacity:.1"/>
 <path d="m25 12a13 13 0 0 0-4.572 0.836 1 1 0 0 0-0.016-0.041 1 1 0 0 0-1.332-0.482 1 1 0 0 0-0.48 1.328 1 1 0 0 0 0.023 0.048 13 13 0 0 0-4.941 4.932 1 1 0 0 0-0.041-0.021 1 1 0 0 0-1.328 0.48 1 1 0 0 0 0.482 1.332 1 1 0 0 0 0.051 0.022 13 13 0 0 0-0.846 4.566 13 13 0 0 0 0.836 4.572 1 1 0 0 0-0.041 0.016 1 1 0 0 0-0.482 1.328 1 1 0 0 0 1.328 0.484 1 1 0 0 0 0.048-0.023 13 13 0 0 0 1.278 1.843l-2.817 2.82c-0.2 0.2-0.2 0.523 0 0.724l1.086 1.086c0.201 0.2 0.524 0.2 0.725 0l2.814-2.81a13 13 0 0 0 1.846 1.28 1 1 0 0 0-0.021 0.04 1 1 0 0 0 0.48 1.328 1 1 0 0 0 1.332-0.478 1 1 0 0 0 0.022-0.06 13 13 0 0 0 4.566 0.85 13 13 0 0 0 4.572-0.84 1 1 0 0 0 0.016 0.05 1 1 0 0 0 1.328 0.478 1 1 0 0 0 0.484-1.328 1 1 0 0 0-0.023-0.05 13 13 0 0 0 4.943-4.931 1 1 0 0 0 0.04 0.021 1 1 0 0 0 1.328-0.484 1 1 0 0 0-0.478-1.328 1 1 0 0 0-0.06-0.022 13 13 0 0 0 0.85-4.566 13 13 0 0 0-0.84-4.572 1 1 0 0 0 0.05-0.016 1 1 0 0 0 0.478-1.332 1 1 0 0 0-1.328-0.48 1 1 0 0 0-0.05 0.023 13 13 0 0 0-4.931-4.941 1 1 0 0 0 0.021-0.041 1 1 0 0 0-0.484-1.328 1 1 0 0 0-1.328 0.482 1 1 0 0 0-0.022 0.051 13 13 0 0 0-4.566-0.846z" style="opacity:.1"/>
 <circle cx="24" cy="24" r="13" style="fill:#afafaf"/>
 <circle cx="24" cy="24" r="11" style="fill:#d8d6cc"/>
 <circle transform="matrix(.90631 -.42262 .42262 .90631 0 0)" cx="-1.391" cy="31.894" r="1" style="fill:#afafaf"/>
 <circle transform="matrix(.90631 .42262 -.42262 .90631 0 0)" cx="18.894" cy="11.609" r="1" style="fill:#afafaf"/>
 <circle transform="matrix(.42262 .90631 -.90631 .42262 0 0)" cx="18.894" cy="-11.609" r="1" style="fill:#afafaf"/>
 <circle transform="matrix(-.42262 .90631 -.90631 -.42262 0 0)" cx="-1.391" cy="-31.894" r="1" style="fill:#afafaf"/>
 <circle transform="matrix(-.90631 .42262 -.42262 -.90631 0 0)" cx="-24.609" cy="-31.894" r="1" style="fill:#afafaf"/>
 <circle transform="matrix(-.90631 -.42262 .42262 -.90631 0 0)" cx="-44.894" cy="-11.609" r="1" style="fill:#afafaf"/>
 <circle transform="matrix(-.42262 -.90631 .90631 -.42262 0 0)" cx="-44.894" cy="11.609" r="1" style="fill:#afafaf"/>
 <circle transform="matrix(.42262 -.90631 .90631 .42262 0 0)" cx="-24.609" cy="31.894" r="1" style="fill:#afafaf"/>
 <path d="m25.22 22a2.816 2.816 0 0 0-2.03 0.824 2.816 2.816 0 0 0-0.583 3.119l-4.9 4.901c-0.169-0.044-0.355-6e-3 -0.488 0.127l-2.307 2.309a13 13 0 0 0 2.01 1.609l2.108-2.108c0.13-0.133 0.17-0.319 0.13-0.491l4.89-4.895a2.816 2.816 0 0 0 3.13-0.588 2.816 2.816 0 0 0 0-3.983 2.816 2.816 0 0 0-1.96-0.824z" style="fill-rule:evenodd;opacity:.1"/>
 <g transform="translate(22)">
  <rect transform="matrix(.96545 .96545 -.72409 .72409 6.4681 4.5674)" x="7" y="18" width="1.5" height="12" rx=".5" style="fill-rule:evenodd;fill:#90724c"/>
  <circle transform="matrix(.70711 .70711 -.70711 .70711 0 0)" cx="18.385" cy="15.296" r="2.816" style="fill:#505050"/>
  <rect transform="matrix(.70711 .70711 -.70711 .70711 0 0)" x="17.1" y="24.768" width="2.56" height="8.192" rx=".512" style="fill:#505050"/>
 </g>
</svg>

<svg xmlns="http://www.w3.org/2000/svg" viewBox="0 0 48 48">
 <defs>
  <linearGradient id="linearGradient4249" y1="47" x2="0" y2="1" gradientUnits="userSpaceOnUse">
   <stop style="stop-color:#b95f94;stop-opacity:1"/>
   <stop offset="1" style="stop-color:#bf6d9d;stop-opacity:1"/>
  </linearGradient>
 </defs>
 <g>
  <path d="m 36.31 5 c 5.859 4.062 9.688 10.831 9.688 18.5 c 0 12.426 -10.07 22.5 -22.5 22.5 c -7.669 0 -14.438 -3.828 -18.5 -9.688 c 1.037 1.822 2.306 3.499 3.781 4.969 c 4.085 3.712 9.514 5.969 15.469 5.969 c 12.703 0 23 -10.298 23 -23 c 0 -5.954 -2.256 -11.384 -5.969 -15.469 c -1.469 -1.475 -3.147 -2.744 -4.969 -3.781 z m 4.969 3.781 c 3.854 4.113 6.219 9.637 6.219 15.719 c 0 12.703 -10.297 23 -23 23 c -6.081 0 -11.606 -2.364 -15.719 -6.219 c 4.16 4.144 9.883 6.719 16.219 6.719 c 12.703 0 23 -10.298 23 -23 c 0 -6.335 -2.575 -12.06 -6.719 -16.219 z" style="opacity:0.05"/>
  <path d="m 41.28 8.781 c 3.712 4.085 5.969 9.514 5.969 15.469 c 0 12.703 -10.297 23 -23 23 c -5.954 0 -11.384 -2.256 -15.469 -5.969 c 4.113 3.854 9.637 6.219 15.719 6.219 c 12.703 0 23 -10.298 23 -23 c 0 -6.081 -2.364 -11.606 -6.219 -15.719 z" style="opacity:0.1"/>
  <path d="m 31.25 2.375 c 8.615 3.154 14.75 11.417 14.75 21.13 c 0 12.426 -10.07 22.5 -22.5 22.5 c -9.708 0 -17.971 -6.135 -21.12 -14.75 a 23 23 0 0 0 44.875 -7 a 23 23 0 0 0 -16 -21.875 z" style="opacity:0.2"/>
 </g>
 <g>
  <path d="m 24 1 c 12.703 0 23 10.297 23 23 c 0 12.703 -10.297 23 -23 23 -12.703 0 -23 -10.297 -23 -23 0 -12.703 10.297 -23 23 -23 z" style="fill:url(#linearGradient4249);fill-opacity:1"/>
 </g>
 <g>
  <path d="m 40.03 7.531 c 3.712 4.084 5.969 9.514 5.969 15.469 0 12.703 -10.297 23 -23 23 c -5.954 0 -11.384 -2.256 -15.469 -5.969 4.178 4.291 10.01 6.969 16.469 6.969 c 12.703 0 23 -10.298 23 -23 0 -6.462 -2.677 -12.291 -6.969 -16.469 z" style="opacity:0.1"/>
 </g>
 <path d="M 25 12 A 13 13 0 0 0 20.428 12.836 A 1 1 0 0 0 20.412 12.795 A 1 1 0 0 0 19.08 12.313 A 1 1 0 0 0 18.6 13.641 A 1 1 0 0 0 18.623 13.689 A 13 13 0 0 0 13.682 18.621 A 1 1 0 0 0 13.641 18.6 A 1 1 0 0 0 12.313 19.08 A 1 1 0 0 0 12.795 20.412 A 1 1 0 0 0 12.846 20.434 A 13 13 0 0 0 12 25 A 13 13 0 0 0 12.836 29.572 A 1 1 0 0 0 12.795 29.588 A 1 1 0 0 0 12.313 30.916 A 1 1 0 0 0 13.641 31.4 A 1 1 0 0 0 13.689 31.377 A 13 13 0 0 0 14.967 33.22 L 12.15 36.04 C 11.95 36.24 11.95 36.563 12.15 36.764 L 13.236 37.85 C 13.437 38.05 13.76 38.05 13.961 37.85 L 16.775 35.04 A 13 13 0 0 0 18.621 36.32 A 1 1 0 0 0 18.6 36.36 A 1 1 0 0 0 19.08 37.688 A 1 1 0 0 0 20.412 37.21 A 1 1 0 0 0 20.434 37.15 A 13 13 0 0 0 25 38 A 13 13 0 0 0 29.572 37.16 A 1 1 0 0 0 29.588 37.21 A 1 1 0 0 0 30.916 37.688 A 1 1 0 0 0 31.4 36.36 A 1 1 0 0 0 31.377 36.31 A 13 13 0 0 0 36.32 31.379 A 1 1 0 0 0 36.36 31.4 A 1 1 0 0 0 37.688 30.916 A 1 1 0 0 0 37.21 29.588 A 1 1 0 0 0 37.15 29.566 A 13 13 0 0 0 38 25 A 13 13 0 0 0 37.16 20.428 A 1 1 0 0 0 37.21 20.412 A 1 1 0 0 0 37.688 19.08 A 1 1 0 0 0 36.36 18.6 A 1 1 0 0 0 36.31 18.623 A 13 13 0 0 0 31.379 13.682 A 1 1 0 0 0 31.4 13.641 A 1 1 0 0 0 30.916 12.313 A 1 1 0 0 0 29.588 12.795 A 1 1 0 0 0 29.566 12.846 A 13 13 0 0 0 25 12 z" style="fill:#000;opacity:0.1;fill-opacity:1"/>
 <g>
  <circle r="13" cy="24" cx="24" style="fill:#afafaf;fill-opacity:1"/>
  <circle r="11" cy="24" cx="24" style="fill:#d8d6cc;fill-opacity:1"/>
  <circle transform="matrix(0.90630779,-0.42261826,0.42261826,0.90630779,0,0)" r="1" cy="31.894" cx="-1.391" style="fill:#afafaf;fill-opacity:1"/>
  <circle transform="matrix(0.90630779,0.42261826,-0.42261826,0.90630779,0,0)" cx="18.894" cy="11.609" r="1" style="fill:#afafaf;fill-opacity:1"/>
  <circle r="1" cy="-11.609" cx="18.894" transform="matrix(0.42261826,0.90630779,-0.90630779,0.42261826,0,0)" style="fill:#afafaf;fill-opacity:1"/>
  <circle transform="matrix(-0.42261826,0.90630779,-0.90630779,-0.42261826,0,0)" cx="-1.391" cy="-31.894" r="1" style="fill:#afafaf;fill-opacity:1"/>
  <circle r="1" cy="-31.894" cx="-24.609" transform="matrix(-0.90630779,0.42261826,-0.42261826,-0.90630779,0,0)" style="fill:#afafaf;fill-opacity:1"/>
  <circle transform="matrix(-0.90630779,-0.42261826,0.42261826,-0.90630779,0,0)" cx="-44.894" cy="-11.609" r="1" style="fill:#afafaf;fill-opacity:1"/>
  <circle r="1" cy="11.609" cx="-44.894" transform="matrix(-0.42261826,-0.90630779,0.90630779,-0.42261826,0,0)" style="fill:#afafaf;fill-opacity:1"/>
  <circle transform="matrix(0.42261826,-0.90630779,0.90630779,0.42261826,0,0)" cx="-24.609" cy="31.894" r="1" style="fill:#afafaf;fill-opacity:1"/>
  <path d="M 25.22 22 A 2.816 2.816 0 0 0 23.19 22.824 A 2.816 2.816 0 0 0 22.607 25.943 L 17.707 30.844 C 17.538 30.8 17.352 30.838 17.219 30.971 L 14.912 33.28 A 13 13 0 0 0 16.922 34.889 L 19.03 32.781 C 19.16 32.648 19.2 32.462 19.16 32.29 L 24.05 27.395 A 2.816 2.816 0 0 0 27.18 26.807 A 2.816 2.816 0 0 0 27.18 22.824 A 2.816 2.816 0 0 0 25.22 22 z" style="fill:#000;opacity:0.1;fill-opacity:1;stroke:none;fill-rule:evenodd"/>
  <g transform="translate(22.000001,0)">
   <rect transform="matrix(0.96544758,0.96544758,-0.7240857,0.7240857,6.4681465,4.5674192)" rx="0.5" y="18" x="7" height="12" width="1.5" style="fill:#90724c;fill-opacity:1;stroke:none;fill-rule:evenodd"/>
   <circle cx="18.385" cy="15.296" r="2.816" transform="matrix(0.70710678,0.70710678,-0.70710678,0.70710678,0,0)" style="fill:#505050;fill-opacity:1;stroke:none"/>
   <rect width="2.56" height="8.192" x="17.1" y="24.768" rx="0.512" transform="matrix(0.70710678,0.70710678,-0.70710678,0.70710678,0,0)" style="fill:#505050;fill-opacity:1;stroke:none"/>
  </g>
 </g>
</svg>
